packages/foundations/assets/icons/functional/images/technology/qr_code_scan_28.svg

<svg width="28" height="28" viewBox="0 0 28 28" fill="none" xmlns="http://www.w3.org/2000/svg">
<g clip-path="url(#clip0_2214_6587)">
<path fill-rule="evenodd" clip-rule="evenodd" d="M11.3618 19.6748C11.3618 19.9207 11.1702 20.1123 10.9243 20.1123H8.29935C8.05347 20.1123 7.86185 19.9207 7.86185 19.6748V17.0498C7.86185 16.8039 8.05347 16.6123 8.29935 16.6123H10.9243C11.1702 16.6123 11.3618 16.8039 11.3618 17.0498V19.6748ZM10.9243 14.8623H8.29935C7.09622 14.8623 6.11185 15.8467 6.11185 17.0498V19.6748C6.11185 20.8779 7.09622 21.8623 8.29935 21.8623H10.9243C12.1275 21.8623 13.1118 20.8779 13.1118 19.6748V17.0498C13.1118 15.8467 12.1275 14.8623 10.9243 14.8623ZM11.3618 10.9248C11.3618 11.1707 11.1702 11.3623 10.9243 11.3623H8.29935C8.05347 11.3623 7.86185 11.1707 7.86185 10.9248V8.29981C7.86185 8.05394 8.05347 7.86231 8.29935 7.86231H10.9243C11.1702 7.86231 11.3618 8.05394 11.3618 8.29981V10.9248ZM10.9243 6.11231H8.29935C7.09622 6.11231 6.11185 7.09669 6.11185 8.29981V10.9248C6.11185 12.1279 7.09622 13.1123 8.29935 13.1123H10.9243C12.1275 13.1123 13.1118 12.1279 13.1118 10.9248V8.29981C13.1118 7.09669 12.1275 6.11231 10.9243 6.11231ZM15.7368 14.8623C15.2722 14.8623 14.8618 15.2727 14.8618 15.7373V18.3623C14.8618 18.8269 15.2722 19.2373 15.7368 19.2373H17.4868V20.9873C17.4868 21.4799 17.8701 21.8623 18.3619 21.8623H20.9869C21.4795 21.8623 21.8619 21.4799 21.8619 20.9873V18.3623C21.8619 17.8706 21.4795 17.4873 20.9869 17.4873H19.2369V15.7373C19.2369 15.2727 18.8265 14.8623 18.3619 14.8623H15.7368ZM20.1119 10.9248C20.1119 11.1707 19.9202 11.3623 19.6744 11.3623H17.0493C16.8035 11.3623 16.6118 11.1707 16.6118 10.9248V8.29981C16.6118 8.05394 16.8035 7.86231 17.0493 7.86231H19.6744C19.9202 7.86231 20.1119 8.05394 20.1119 8.29981V10.9248ZM19.6744 6.11231H17.0493C15.8462 6.11231 14.8618 7.09669 14.8618 8.29981V10.9248C14.8618 12.1279 15.8462 13.1123 17.0493 13.1123H19.6744C20.8775 13.1123 21.8619 12.1279 21.8619 10.9248V8.29981C21.8619 7.09669 20.8775 6.11231 19.6744 6.11231ZM20.9755 1.75219C20.4592 1.75306 20.1005 2.17831 20.1005 2.62719C20.1005 3.11019 20.4925 3.50219 20.9755 3.50219C21.567 3.50044 22.1585 3.50044 22.75 3.50219C23.779 3.50481 24.5 4.32906 24.5 5.25219C24.4904 5.82269 24.4816 6.39319 24.4755 6.96456C24.4702 7.46069 24.8893 7.84569 25.3382 7.85181C25.8212 7.85881 26.2185 7.47294 26.2255 6.98994C26.236 6.41419 26.2439 5.83931 26.25 5.26444C26.2719 3.29744 24.6251 1.75219 22.75 1.75219C22.1585 1.74956 21.567 1.74956 20.9755 1.75219ZM5.25172 1.75131C3.2436 1.75569 1.75172 3.37619 1.75172 5.25131C1.7491 5.83406 1.7491 6.41331 1.75172 6.98906C1.7526 7.48256 2.17785 7.85094 2.62672 7.85094C3.10972 7.85094 3.50172 7.45894 3.50172 6.97594C3.49997 6.40106 3.49997 5.82619 3.50172 5.25131C3.50435 4.25119 4.3286 3.50131 5.25172 3.50131C5.8266 3.50306 6.40147 3.50306 6.97635 3.50131C7.47948 3.49956 7.85135 3.07431 7.85135 2.62631C7.85135 2.14244 7.45935 1.75131 6.97635 1.75131C6.40147 1.74956 5.8266 1.74956 5.25172 1.75131ZM1.75172 20.9733C1.74997 21.5648 1.74997 22.1563 1.75172 22.7487C1.7561 24.7323 3.3766 26.2487 5.25172 26.2487C5.8266 26.2504 6.40147 26.2504 6.97635 26.2487C7.48472 26.2469 7.85135 25.8217 7.85135 25.3737C7.85135 24.8898 7.45935 24.4987 6.97635 24.4987C6.40147 24.4996 5.8266 24.4996 5.25172 24.4987C4.22535 24.4961 3.50172 23.6709 3.50172 22.7487C3.50347 22.1563 3.50347 21.5648 3.50172 20.9733C3.49997 20.4474 3.07472 20.0983 2.62672 20.0983C2.14285 20.0983 1.75172 20.4903 1.75172 20.9733ZM25.3732 20.0992C25.8221 20.0992 26.2465 20.4221 26.2482 20.9742C26.2508 21.5657 26.2508 22.1572 26.2482 22.7487C26.2482 24.6238 24.7581 26.2443 22.7482 26.2487C22.1567 26.2504 21.5652 26.2504 20.9737 26.2487C20.4907 26.2487 20.0987 25.8576 20.0987 25.3737C20.0987 24.9257 20.468 24.5004 20.9737 24.4987C21.5652 24.4969 22.1567 24.4969 22.7482 24.4987C23.6713 24.4987 24.4965 23.7304 24.4982 22.7487C24.5 22.1572 24.5 21.5657 24.4982 20.9742C24.4982 20.4912 24.8902 20.0992 25.3732 20.0992Z" fill="#1A1C1F"/>
</g>
<defs>
<clipPath id="clip0_2214_6587">
<rect width="28" height="28" fill="white"/>
</clipPath>
</defs>
</svg>

<svg xmlns="http://www.w3.org/2000/svg" width="28" height="28" fill="none"><g clip-path="url(#a)"><path fill="#1A1C1F" fill-rule="evenodd" d="M11.362 19.675a.43.43 0 0 1-.438.437H8.3a.43.43 0 0 1-.437-.437V17.05c0-.246.191-.438.437-.438h2.625c.246 0 .438.192.438.438zm-.438-4.813H8.3a2.194 2.194 0 0 0-2.187 2.188v2.625c0 1.203.984 2.187 2.187 2.187h2.625a2.194 2.194 0 0 0 2.188-2.187V17.05a2.194 2.194 0 0 0-2.188-2.188m.438-3.937a.43.43 0 0 1-.438.437H8.3a.43.43 0 0 1-.437-.437V8.3c0-.246.191-.438.437-.438h2.625c.246 0 .438.192.438.438zm-.438-4.813H8.3A2.194 2.194 0 0 0 6.112 8.3v2.625c0 1.203.984 2.187 2.187 2.187h2.625a2.194 2.194 0 0 0 2.188-2.187V8.3a2.194 2.194 0 0 0-2.188-2.188m4.813 8.75a.9.9 0 0 0-.875.875v2.625a.9.9 0 0 0 .875.875h1.75v1.75c0 .493.383.875.875.875h2.625a.863.863 0 0 0 .875-.875v-2.625a.864.864 0 0 0-.875-.875h-1.75v-1.75a.9.9 0 0 0-.875-.875zm4.375-3.937a.43.43 0 0 1-.438.437H17.05a.43.43 0 0 1-.437-.437V8.3c0-.246.192-.438.437-.438h2.625c.246 0 .438.192.438.438zm-.438-4.813H17.05A2.194 2.194 0 0 0 14.862 8.3v2.625c0 1.203.984 2.187 2.187 2.187h2.625a2.194 2.194 0 0 0 2.188-2.187V8.3a2.194 2.194 0 0 0-2.188-2.188m1.302-4.36a.876.876 0 0 0 0 1.75q.887-.003 1.774 0a1.74 1.74 0 0 1 1.75 1.75q-.015.855-.024 1.713a.89.89 0 0 0 .862.887.875.875 0 0 0 .887-.862q.016-.863.025-1.726c.022-1.967-1.625-3.512-3.5-3.512q-.887-.003-1.774 0m-15.724 0a3.49 3.49 0 0 0-3.5 3.5q-.004.873 0 1.737a.875.875 0 0 0 1.75-.013q-.003-.863 0-1.725c.002-1 .827-1.75 1.75-1.75q.863.003 1.724 0a.886.886 0 0 0 .875-.875.875.875 0 0 0-.875-.875zm-3.5 19.221q-.003.887 0 1.776a3.507 3.507 0 0 0 3.5 3.5h1.724a.88.88 0 0 0 .875-.875.875.875 0 0 0-.875-.875H5.252a1.74 1.74 0 0 1-1.75-1.75v-1.776a.87.87 0 0 0-.875-.875.875.875 0 0 0-.875.875m23.621-.874c.45 0 .874.323.875.875q.005.887 0 1.775a3.49 3.49 0 0 1-3.5 3.5h-1.774a.875.875 0 0 1-.875-.875c0-.448.369-.874.875-.875a292 292 0 0 1 1.774 0c.923 0 1.749-.769 1.75-1.75q.003-.887 0-1.775c0-.483.392-.875.875-.875" clip-rule="evenodd"/></g><defs><clipPath id="a"><path fill="#fff" d="M0 0h28v28H0z"/></clipPath></defs></svg>
